X:62
T:Thru The Window
M:6/8
C: Rick Weidley
F:http://blackrosetheband.googlepages.com/ABCTUNES.ABC May 2009
R:
K:D
"D"fga gfe | "Bm"f2d B2A | "G"Bdg bag | "A"abf gfe |
"D"fga gfe | "Bm"f2d B2A | "G"GBd gab | "A"fge "D"d3 : ||
K:G
"G"gab agf | "Em"efg fed | "C"cde dcB | "D"cBc A3 |
"G"gab agf | "Em"efg fed | "C"cde dcB | "D"ABA "G"G3 :||
